icons/linear-new-office-doc-file-exe.svg

<svg xmlns="http://www.w3.org/2000/svg" width="32px" height="32px" viewBox="0 0 32 32" version="1.1">
    <title>linear-new-office-doc-file-exe</title>
    <g id="linear-new-office-doc-file-exe" stroke-width="1" fill-rule="evenodd">
        <path d="M20,2 C20.2652165,2 20.5195704,2.10535684 20.7071068,2.29289322 L27.415,9 L29,9 C29.5522847,9 30,9.44771525 30,10 L30,23 C30,23.5522847 29.5522847,24 29,24 L28,24 L28,29 C28,29.5522847 27.5522847,30 27,30 L5,30 C4.44771525,30 4,29.5522847 4,29 L4,24 L3,24 C2.44771525,24 2,23.5522847 2,23 L2,10 C2,9.44771525 2.44771525,9 3,9 L4,9 L4,3 C4,2.44771525 4.44771525,2 5,2 L20,2 Z M26,24 L6,24 L6,28 L26,28 L26,24 Z M28,11 L4,11 L4,22 L28,22 L28,11 Z M11.5,12.5 L11.5,14.5 L7.5,14.5 L7.5,15.5 L11,15.5 L11,17.5 L7.5,17.5 L7.5,18.5 L11.5,18.5 L11.5,20.5 L5.5,20.5 L5.5,12.5 L11.5,12.5 Z M26.5,12.5 L26.5,14.5 L22.5,14.5 L22.5,15.5 L26,15.5 L26,17.5 L22.5,17.5 L22.5,18.5 L26.5,18.5 L26.5,20.5 L20.5,20.5 L20.5,12.5 L26.5,12.5 Z M14.921,12.4993571 L15.9998427,14.4413571 L17.078,12.4993571 L19.367,12.4993571 L17.1438427,16.5003571 L19.366,20.4993571 L17.077,20.4993571 L15.9998427,18.5583571 L14.921,20.4993571 L12.634,20.4993571 L14.8558427,16.5003571 L12.633,12.4993571 L14.921,12.4993571 Z M19.585,4 L6,4 L6,9 L24.585,9 L19.585,4 Z" id="&#24418;&#29366;" fill-rule="nonzero" />
    </g>
</svg>

<svg xmlns="http://www.w3.org/2000/svg" viewBox="0 0 32 32"><path fill="currentColor" d="M20 2a1 1 0 0 1 .707.293L27.415 9H29a1 1 0 0 1 1 1v13a1 1 0 0 1-1 1h-1v5a1 1 0 0 1-1 1H5a1 1 0 0 1-1-1v-5H3a1 1 0 0 1-1-1V10a1 1 0 0 1 1-1h1V3a1 1 0 0 1 1-1zm6 22H6v4h20zm2-13H4v11h24zm-16.5 1.5v2h-4v1H11v2H7.5v1h4v2h-6v-8zm15 0v2h-4v1H26v2h-3.5v1h4v2h-6v-8zm-11.579 0L16 14.44l1.078-1.942h2.289L17.144 16.5l2.222 4h-2.289L16 18.557 14.92 20.5h-2.287l2.222-3.999-2.223-4zM19.585 4H6v5h18.585z"/></svg>
